dist/img/42.svg

<svg version="1.1" xmlns="http://www.w3.org/2000/svg" xmlns:xlink="http://www.w3.org/1999/xlink" x="0px" y="0px" width="512px" height="512px"><path d="M475.0856628,96.0113068H36.9143715C16.5548477,96.0113068,0,112.5661545,0,132.9256744v246.1486664c0,20.3595276,16.5548477,36.9143372,36.9143715,36.9143372h438.1712952C495.4451599,415.988678,512,399.4338379,512,379.0743408V132.925705C512,112.5661774,495.4451294,96.0113297,475.0856628,96.0113068z M288,351.9433594l-64,0.0679626v-96.0000305l-48.011322,61.5314941l-48.0113144-61.5314941v96.0000305H63.9773521v-192h64.0000153l48.0113144,64l48.011322-64l64-0.0679474V351.9433594z M383.5357361,367.9547119L304.011322,256.0112915h47.9886475v-96H416v96h47.9886475L383.5357361,367.9547119z"/></svg>

<svg xmlns="http://www.w3.org/2000/svg" width="512" height="512"><path d="M475.086 96.011H36.914C16.554 96.011 0 112.566 0 132.926v246.148c0 20.36 16.555 36.915 36.914 36.915h438.172c20.36 0 36.914-16.555 36.914-36.915V132.926c0-20.36-16.555-36.915-36.914-36.915zM288 351.943l-64 .068v-96l-48.011 61.532-48.012-61.532v96h-64v-192h64l48.012 64 48.011-64 64-.068v192zm95.536 16.012L304.01 256.01H352v-96h64v96h47.989l-80.453 111.944z"/></svg>
